assets/Bat/Flat/bat_flat.svg

<svg width="32" height="32" viewBox="0 0 32 32" fill="none" xmlns="http://www.w3.org/2000/svg">
<path d="M19.3859 9.58452L26.6806 2.20071C26.6939 2.18745 26.7096 2.16926 26.7275 2.14858C26.8182 2.04379 26.9642 1.87507 27.12 1.96024C27.3521 2.08716 27.2854 2.33186 27.189 2.49335C26.3207 3.94884 26.2747 7.36886 29.6056 8.02646C29.7494 8.0594 29.8817 8.30247 29.6611 8.52303C28.6115 9.57264 26.689 12.9977 29.9263 15.5941C30.0404 15.6567 30.1715 15.8261 29.7826 16.0029C29.7533 16.0162 29.7124 16.0328 29.6618 16.0533C28.8749 16.3717 25.7323 17.6434 26.8327 22.7094L20.5129 16.3896C21.1869 15.7819 21.9095 13.7865 19.4081 10.6664C18.9167 10.0536 19.3859 9.58452 19.3859 9.58452Z" fill="#A56953"/>
<path d="M9.74083 19.2296L2.35702 26.5243C2.34377 26.5376 2.32557 26.5533 2.30489 26.5712C2.2001 26.6619 2.03138 26.8079 2.11655 26.9637C2.24347 27.1958 2.48817 27.129 2.64966 27.0327C4.10515 26.1644 7.52517 26.1184 8.18277 29.4493C8.21571 29.593 8.45878 29.7253 8.67934 29.5048C9.72895 28.4552 13.154 26.5327 15.7504 29.77C15.813 29.8841 15.9824 30.0152 16.1592 29.6263C16.1726 29.597 16.1891 29.5561 16.2096 29.5055C16.528 28.7185 17.7997 25.576 22.8657 26.6764L16.5459 20.3566C15.9382 21.0306 13.9428 21.7532 10.8228 19.2517C10.2099 18.7604 9.74083 19.2296 9.74083 19.2296Z" fill="#A56953"/>
<path d="M22.5489 18.0733C22.4661 17.3728 22.1445 16.6526 21.4734 15.9814L17.4738 11.9818C17.1533 11.6613 16.8219 11.794 16.9656 12.4901L17.2749 15.2964C16.8551 15.6425 15.9115 16.483 15.4961 17.0752L12.6125 16.8432C11.8943 16.7658 11.7507 17.0863 12.06 17.3956C12.1636 17.4992 12.3722 17.7043 12.6455 17.973C13.5611 18.8732 15.2031 20.4876 16.0596 21.3952C16.4731 21.8087 17.2468 22.2908 18.181 22.4182C18.7158 23.022 19.5553 23.9186 20.8104 25.1737C23.8038 28.1671 25.3559 26.74 26.2073 25.9571C26.2358 25.9309 26.2635 25.9054 26.2905 25.8808C27.9146 24.2567 26.8429 22.4116 25.2851 20.699C24.4759 19.8095 23.3965 18.8045 22.5489 18.0733Z" fill="#6D4534"/>
<path d="M19.0648 20.71C18.6173 20.2626 18.645 19.1522 18.9377 18.8594C19.3134 18.4838 20.5066 18.5942 20.8436 18.9312C21.0591 19.1467 21.0867 19.4616 20.3133 20.235C19.5399 21.0084 19.2195 20.8647 19.0648 20.71Z" fill="#FF8687"/>
<path d="M19.5 18C19.7761 18 20 17.7761 20 17.5C20 17.2239 19.7761 17 19.5 17C19.2239 17 19 17.2239 19 17.5C19 17.7761 19.2239 18 19.5 18Z" fill="#1C1C1C"/>
<path d="M17.5 20C17.7761 20 18 19.7761 18 19.5C18 19.2239 17.7761 19 17.5 19C17.2239 19 17 19.2239 17 19.5C17 19.7761 17.2239 20 17.5 20Z" fill="#1C1C1C"/>
</svg>

<svg xmlns="http://www.w3.org/2000/svg" width="32" height="32" fill="none"><path fill="#A56953" d="M19.386 9.585 26.68 2.2l.046-.052c.091-.105.237-.274.393-.189.232.127.165.372.069.533-.868 1.456-.914 4.876 2.417 5.533.143.033.276.276.055.497-1.05 1.05-2.972 4.475.265 7.071.114.063.246.232-.143.409l-.121.05c-.787.319-3.93 1.59-2.83 6.656l-6.32-6.32c.675-.607 1.398-2.602-1.104-5.723-.491-.612-.022-1.081-.022-1.081ZM9.74 19.23l-7.383 7.294c-.013.014-.031.03-.052.047-.105.09-.274.237-.188.393.126.232.371.165.533.069 1.455-.869 4.875-.915 5.533 2.416.033.144.276.276.496.056 1.05-1.05 4.475-2.972 7.071.265.063.114.232.245.41-.144l.05-.12c.318-.788 1.59-3.93 6.656-2.83l-6.32-6.32c-.608.675-2.603 1.397-5.723-1.104-.613-.492-1.082-.022-1.082-.022Z"/><path fill="#6D4534" d="M22.549 18.073c-.083-.7-.404-1.42-1.076-2.092l-4-4c-.32-.32-.651-.187-.507.51l.309 2.805c-.42.347-1.363 1.187-1.779 1.78l-2.883-.233c-.719-.077-.862.243-.553.553l.585.577c.916.9 2.558 2.515 3.415 3.422.413.414 1.187.896 2.121 1.023.535.604 1.374 1.5 2.63 2.756 2.993 2.993 4.545 1.566 5.396.783l.084-.076c1.624-1.624.552-3.47-1.006-5.182-.81-.89-1.889-1.895-2.736-2.626Z"/><path fill="#FF8687" d="M19.065 20.71c-.448-.447-.42-1.558-.127-1.85.375-.376 1.569-.266 1.906.071.215.216.243.53-.53 1.304-.774.773-1.095.63-1.25.475Z"/><path fill="#1C1C1C" d="M19.5 18a.5.5 0 1 0 0-1 .5.5 0 0 0 0 1ZM17.5 20a.5.5 0 1 0 0-1 .5.5 0 0 0 0 1Z"/></svg>
